X:1
T:Komm, Gott Schöpfer
T:Balthasar Resinarius
T:Source : DDT 34---Leipzig---Breitkopf & Härtel---J.Wolf---1908. First print : Newe Deudsche Geistliche Gesenge---Wittemberg---G.Rhau---1544. Editor : André Vierendeels (01/08/17).
T:Notes : Original clefs : C1, C3, C4, F4 Original note values have been halved Editorial accidental above the staff
T:Komm, Gott Schöpfer
T:©
T:©
C:Balthasar Resinarius
Z:©
%%score [ 1 [ 2 3 ] 4 ]
L:1/8
Q:1/4=120
M:2/2
K:C
V:1 treble nm="Soprano" snm="S"
V:2 treble-8 nm="Tenor 1" snm="T 1"
V:3 treble-8 nm="Tenor 2" snm="T 2"
V:4 bass nm="Bass" snm="B"
V:1
 z8 | z8 | G4 A4 | G4 F4 | G4 c4 | B4 c3 B | G2 c3 B BA | c4 c4 | G4 A2 c2- | c2 B2 c2 e2- | %10
w: ||Komm, Gott|Schöp- fer,|hei- *||* li- * gen _|Geist, be-|such das Herz|_ _ _ der|
 e2 dc B2 d2- | d2 cB c2 Bc | d3 c B2 A2 | d3 c B3 A | G4 z2 G2- | G2 F2 G3 F | D6 E2 | F2 G4 F2 | %18
w: _ _ _ _ Men-||* * * schen|dei. _ _ _|_ Mit|_ Gna- * den|sie füll,|wie _ du|
 G2 G2 c4 | A4 F3 G | A4 G2 c2- | cBAG F3 E/F/ |"^#" G6 FE | D8 |] %24
w: weiszt, dasz dein|Ge- schöpf vor|hin [sei, vor-|* * * * hin _ ]|sei. _ _|_|
V:2
 d4 e4 | d4 c2 BA | B4 z2 A2 | B2 c2 d3 c | B2 AG A4 | G4 z4 | z4 g3 f | ed c2 c2 BA | B4 A4 | %9
w: Komm, Gott|Schöp- * * *|fer, hei-||* li- * ger|Geist,|hei- *|* * * li- * *|* ger|
 d4 cBcd | e2 f2 g2 f2 | a4 a4 | f2 g2 G2 A2 | B4 B4 | c3 d e4 | d4 B4 | B6 AG | A2 G2 A4 | %18
w: Geist, be- * * *|* * such das|Herz der|Men- * * schen|dein. Mit|Gna- * den|sie füll,|wie _ _|_ du weiszt,|
 G2 c3 d e2- | e2 dc d4 | c3 d e4 | c3 c d4 | B8- | B8 |] %24
w: dasz dein _ _|_ _ _ _|Ge- * *|schöpf vor- hin|sei.|_|
V:3
 z8 | z8 | z8 | G4 A4 | G4 F4 | G4 c3 d | e2 c2 d4 | c8 | z4 c4 | G4 AGAB | c4 d4 | e4 e4 | d8 | %13
w: |||Komm, Gott|Schöp- fer,|hei- * *|* li- ger|Geist,|be-|such das _ _ _|Herz der|Men- schen|dein,|
 z4 d4 | e4 c4 | A4 G4 | B6 c2 | d8 | z4 G4 | c4 A4 | F4 G4 | A8 | G8- | G8 |] %24
w: mit|Gna- den|sie füll,|wie du|weiszt,|dasz|dein Ge-|schöpf vor-|hin|sei.|_|
V:4
 z8 | G,4 A,4 | G,4 F,4 | G,2 E,2 D,4 | z8 | z2 G,2 A,3 B, | C2 A,2 G,4 | A,6 G,F, | E,4 F,4 | %9
w: |Komm, Gott|Schöp- *|* * fer,||hei- * *||* li- *|* ger|
 G,4 z2 C2 | C2 B,A, G,2 B,2 | A,4 A,4 | D,2 G,4 F,2 | G,4 G,4 | C,4 C,4 | D,4 E,3 F, | G,6 F,E, | %17
w: Geist, be-|such _ _ _ das|Herz der|Men- * schen|dein, mit|Gna- den|sie füll, _|wie du _|
"^#""^#" D,8 | E,2 C,2 C,4 | z4 D,3 E, | F,4 E,2 C,2 | F,3 E, D,3 C,/D,/ | G,,8- | G,,8 |] %24
w: weiszt,|[wie du weiszt]|dasz _|_ dein Ge-|schöpf vor- hin _ _|sei.|_|

